libs/@hashintel/ds-components/.storybook/static/hash_logo_black.svg

<?xml version="1.0" encoding="UTF-8"?>
<svg width="1577px" height="358px" viewBox="0 0 1577 358" version="1.1" xmlns="http://www.w3.org/2000/svg" xmlns:xlink="http://www.w3.org/1999/xlink">
    <!-- Generator: Sketch 63.1 (92452) - https://sketch.com -->
    <title>hash_logo_black</title>
    <desc>Created with Sketch.</desc>
    <defs>
        <linearGradient x1="50%" y1="100%" x2="50%" y2="0%" id="linearGradient-1">
            <stop stop-color="#2B3133" offset="0%"></stop>
            <stop stop-color="#1A1E27" offset="100%"></stop>
        </linearGradient>
        <linearGradient x1="50%" y1="0.137246622%" x2="50%" y2="100%" id="linearGradient-2">
            <stop stop-color="#292E30" offset="0%"></stop>
            <stop stop-color="#1D1D29" offset="100%"></stop>
        </linearGradient>
        <linearGradient x1="5.85639584%" y1="50%" x2="95.92606%" y2="50%" id="linearGradient-3">
            <stop stop-color="#343738" offset="0%"></stop>
            <stop stop-color="#1C1D25" offset="100%"></stop>
        </linearGradient>
        <linearGradient x1="8.80316122%" y1="50%" x2="100%" y2="50%" id="linearGradient-4">
            <stop stop-color="#222029" offset="0%"></stop>
            <stop stop-color="#222426" offset="100%"></stop>
        </linearGradient>
        <polygon id="path-5" points="497.718599 54.7900084 565.676797 54.7900084 565.676797 146.568605 652.901494 146.568605 652.901494 54.7900084 720.859692 54.7900084 720.859692 300 652.901494 300 652.901494 206.820203 565.676797 206.820203 565.676797 300 497.718599 300"></polygon>
        <path d="M935.98767,203.317203 L908.664271,133.607506 L880.990572,203.317203 L935.98767,203.317203 Z M876.436672,53.0385085 L941.94277,53.0385085 L1046.33217,300 L973.469769,300 L955.60447,256.212502 L861.023473,256.212502 L843.508473,300 L772.047276,300 L876.436672,53.0385085 Z" id="path-6"></path>
        <path d="M1193.85225,304.2036 C1171.9,304.2036 1151.05736,300.817401 1131.3237,294.0449 C1111.59003,287.2724 1094.13359,277.113802 1078.95385,263.568801 L1116.78625,218.380103 C1141.30737,237.997 1167.81314,247.805302 1196.30435,247.805302 C1205.41219,247.805302 1212.35974,246.345733 1217.1472,243.426552 C1221.93465,240.507371 1224.32834,236.362196 1224.32834,230.990902 L1224.32834,230.290302 C1224.32834,227.721423 1223.74452,225.444496 1222.57684,223.459453 C1221.40917,221.474409 1219.24901,219.547779 1216.0963,217.679503 C1212.94358,215.811227 1208.74002,214.001362 1203.4855,212.249853 C1198.23097,210.498344 1191.40019,208.688479 1182.99295,206.820203 C1169.91501,203.784255 1157.7714,200.456438 1146.56175,196.836654 C1135.35209,193.216869 1125.60217,188.546249 1117.3117,182.824654 C1109.02122,177.103059 1102.48236,169.980364 1097.6949,161.456355 C1092.90744,152.932346 1090.51375,142.365068 1090.51375,129.754206 L1090.51375,129.053606 C1090.51375,117.610416 1092.67391,107.101521 1096.9943,97.5266069 C1101.31469,87.9516927 1107.62002,79.6613426 1115.9105,72.6553078 C1124.20097,65.649273 1134.18442,60.2196775 1145.86115,56.3663583 C1157.53787,52.5130392 1170.73237,50.5864085 1185.44505,50.5864085 C1206.46315,50.5864085 1225.20401,53.3303977 1241.66819,58.8184583 C1258.13238,64.3065188 1273.01998,72.4217208 1286.33144,83.1643074 L1252.35234,131.155406 C1241.14269,123.215233 1229.64129,117.20181 1217.8478,113.114956 C1206.0543,109.028103 1194.66967,106.984707 1183.69355,106.984707 C1175.51984,106.984707 1169.38965,108.502658 1165.3028,111.538606 C1161.21594,114.574555 1159.17255,118.311051 1159.17255,122.748206 L1159.17255,123.448806 C1159.17255,126.25122 1159.81476,128.703295 1161.0992,130.805106 C1162.38364,132.906916 1164.60218,134.833547 1167.7549,136.585056 C1170.90761,138.336564 1175.22794,140.088047 1180.716,141.839555 C1186.20406,143.591064 1193.1516,145.400929 1201.55885,147.269205 C1215.57092,150.305154 1228.23997,153.866501 1239.56639,157.953355 C1250.89282,162.040208 1260.52597,167.002742 1268.46614,172.841104 C1276.40632,178.679467 1282.47812,185.743779 1286.68174,194.034254 C1290.88536,202.324728 1292.98714,212.191412 1292.98714,223.634603 L1292.98714,224.335203 C1292.98714,236.946065 1290.59345,248.155553 1285.80599,257.964001 C1281.01854,267.77245 1274.30452,276.121183 1265.66374,283.010451 C1257.02297,289.899718 1246.63084,295.154165 1234.48704,298.77395 C1222.34325,302.393735 1208.79845,304.2036 1193.85225,304.2036 Z" id="path-7"></path>
        <polygon id="path-8" points="1353.28253 54.7900084 1421.24073 54.7900084 1421.24073 146.568605 1508.46542 146.568605 1508.46542 54.7900084 1576.42362 54.7900084 1576.42362 300 1508.46542 300 1508.46542 206.820203 1421.24073 206.820203 1421.24073 300 1353.28253 300"></polygon>
    </defs>
    <g id="Page-1" stroke="none" stroke-width="1" fill="none" fill-rule="evenodd">
        <g id="hash_logo_black" fill-rule="nonzero">
            <g id="Black-Icon">
                <polygon id="Fill-1" fill="url(#linearGradient-1)" opacity="0.886276972" points="200.52 357.646213 300.102128 357.646213 300.102128 -0.002297872 200.52 -0.002297872"></polygon>
                <polygon id="Fill-2" fill="url(#linearGradient-2)" opacity="0.898344494" points="57.546383 357.646213 157.120851 357.646213 157.120851 -0.002297872 57.546383 -0.002297872"></polygon>
                <polygon id="Fill-3" fill="url(#linearGradient-3)" opacity="0.881277902" points="0 153.288766 357.648511 153.288766 357.648511 53.7066383 0 53.7066383"></polygon>
                <polygon id="Fill-4" fill="url(#linearGradient-4)" opacity="0.85563151" points="0 298.820681 357.648511 298.820681 357.648511 199.246213 0 199.246213"></polygon>
            </g>
            <g id="H">
                <use fill="#000000" xlink:href="#path-5"></use>
                <use fill="#2A2F36" xlink:href="#path-5"></use>
            </g>
            <g id="A">
                <use fill="#000000" xlink:href="#path-6"></use>
                <use fill="#2A2F36" xlink:href="#path-6"></use>
            </g>
            <g id="S">
                <use fill="#000000" xlink:href="#path-7"></use>
                <use fill="#2A2F36" xlink:href="#path-7"></use>
            </g>
            <g id="H">
                <use fill="#000000" xlink:href="#path-8"></use>
                <use fill="#2A2F36" xlink:href="#path-8"></use>
            </g>
        </g>
    </g>
</svg>

<svg xmlns="http://www.w3.org/2000/svg" xmlns:xlink="http://www.w3.org/1999/xlink" width="1577"
    height="358">
    <defs>
        <linearGradient id="a" x1="50%" x2="50%" y1="100%" y2="0%">
            <stop offset="0%" stop-color="#2B3133" />
            <stop offset="100%" stop-color="#1A1E27" />
        </linearGradient>
        <linearGradient id="b" x1="50%" x2="50%" y1=".137%" y2="100%">
            <stop offset="0%" stop-color="#292E30" />
            <stop offset="100%" stop-color="#1D1D29" />
        </linearGradient>
        <linearGradient id="c" x1="5.856%" x2="95.926%" y1="50%" y2="50%">
            <stop offset="0%" stop-color="#343738" />
            <stop offset="100%" stop-color="#1C1D25" />
        </linearGradient>
        <linearGradient id="d" x1="8.803%" x2="100%" y1="50%" y2="50%">
            <stop offset="0%" stop-color="#222029" />
            <stop offset="100%" stop-color="#222426" />
        </linearGradient>
        <path id="e"
            d="M497.719 54.79h67.958v91.779h87.224V54.79h67.959V300h-67.959v-93.18h-87.224V300h-67.958z" />
        <path id="f"
            d="m935.988 203.317-27.324-69.71-27.673 69.71h54.997ZM876.437 53.04h65.506L1046.333 300H973.47l-17.866-43.787h-94.58L843.507 300h-71.46L876.436 53.039Z" />
        <path id="g"
            d="M1193.852 304.204c-21.952 0-42.795-3.387-62.528-10.16-19.734-6.772-37.19-16.93-52.37-30.475l37.832-45.189c24.521 19.617 51.027 29.425 79.518 29.425 9.108 0 16.056-1.46 20.843-4.378 4.788-2.92 7.181-7.065 7.181-12.436v-.7c0-2.57-.583-4.847-1.751-6.832-1.168-1.985-3.328-3.911-6.48-5.78-3.153-1.868-7.357-3.678-12.611-5.43-5.255-1.75-12.086-3.56-20.493-5.429-13.078-3.036-25.222-6.364-36.431-9.983-11.21-3.62-20.96-8.29-29.25-14.012-8.29-5.722-14.83-12.845-19.617-21.369-4.788-8.524-7.181-19.09-7.181-31.702v-.7c0-11.444 2.16-21.952 6.48-31.527s10.626-17.866 18.917-24.872c8.29-7.006 18.273-12.435 29.95-16.289 11.677-3.853 24.871-5.78 39.584-5.78 21.018 0 39.759 2.744 56.223 8.232 16.464 5.489 31.352 13.604 44.663 24.346l-33.979 47.991c-11.21-7.94-22.71-13.953-34.504-18.04-11.794-4.087-23.178-6.13-34.154-6.13-8.174 0-14.304 1.518-18.391 4.554-4.087 3.036-6.13 6.772-6.13 11.21v.7c0 2.802.642 5.254 1.926 7.356 1.285 2.102 3.503 4.029 6.656 5.78 3.153 1.752 7.473 3.503 12.961 5.255 5.488 1.751 12.436 3.56 20.843 5.43 14.012 3.035 26.681 6.597 38.007 10.683 11.327 4.087 20.96 9.05 28.9 14.888 7.94 5.838 14.012 12.903 18.216 21.193 4.203 8.29 6.305 18.157 6.305 29.6v.701c0 12.611-2.394 23.82-7.181 33.629-4.787 9.808-11.501 18.157-20.142 25.046-8.641 6.89-19.033 12.144-31.177 15.764-12.144 3.62-25.689 5.43-40.635 5.43Z" />
        <path id="h"
            d="M1353.283 54.79h67.958v91.779h87.224V54.79h67.959V300h-67.959v-93.18h-87.224V300h-67.958z" />
    </defs>
    <g fill="none" fill-rule="nonzero">
        <path fill="url(#a)" d="M200.52 357.646h99.582V-.002H200.52z" opacity=".886" />
        <path fill="url(#b)" d="M57.546 357.646h99.575V-.002H57.546z" opacity=".898" />
        <path fill="url(#c)" d="M0 153.289h357.649V53.707H0z" opacity=".881" />
        <path fill="url(#d)" d="M0 298.821h357.649v-99.575H0z" opacity=".856" />
        <use xlink:href="#e" fill="#000" />
        <use xlink:href="#e" fill="#2A2F36" />
        <use xlink:href="#f" fill="#000" />
        <use xlink:href="#f" fill="#2A2F36" />
        <use xlink:href="#g" fill="#000" />
        <use xlink:href="#g" fill="#2A2F36" />
        <use xlink:href="#h" fill="#000" />
        <use xlink:href="#h" fill="#2A2F36" />
    </g>
</svg>
